build/img/icon-rub.svg

<svg width="30" height="42" viewBox="0 0 30 42" fill="none" xmlns="http://www.w3.org/2000/svg">
<path fill-rule="evenodd" clip-rule="evenodd" d="M18.5 6H10V17H18.5C21.5376 17 24 14.5376 24 11.5C24 8.46243 21.5376 6 18.5 6ZM4 0V23H18.5C24.8513 23 30 17.8513 30 11.5C30 5.14873 24.8513 0 18.5 0H4Z" fill="#102654"/>
<path fill-rule="evenodd" clip-rule="evenodd" d="M0 17H6V23H0V17Z" fill="#102654"/>
<path fill-rule="evenodd" clip-rule="evenodd" d="M3.65854 28.3214V18H9.65854V28.3214H21V34.3214H9.65854V42H3.65854V34.3214H0V28.3214H3.65854Z" fill="#102654"/>
</svg>

<svg width="30" height="42" fill="none" xmlns="http://www.w3.org/2000/svg"><path fill-rule="evenodd" clip-rule="evenodd" d="M18.5 6H10v11h8.5a5.5 5.5 0 100-11zM4 0v23h14.5C24.851 23 30 17.851 30 11.5S24.851 0 18.5 0H4z" fill="#102654"/><path fill-rule="evenodd" clip-rule="evenodd" d="M0 17h6v6H0v-6z" fill="#102654"/><path fill-rule="evenodd" clip-rule="evenodd" d="M3.659 28.321V18h6v10.321H21v6H9.659V42h-6v-7.679H0v-6h3.659z" fill="#102654"/></svg>
